X:1
T:Title
%%score { 1 | 2 }
L:1/8
M:6/8
K:G
V:1 treble nm="Grand Piano"
V:2 bass 
V:1
 z3 z2[Q:1/4=81] [B,D]/[B,D]/ | [CE][B,D][B,D] [B,G]2 [DB] | BAA A2 c | Bcd [Ge][EGc][CEA] | %4
 G3 F2 F/F/ | GGG [Ec]2 [Ec] | AAA [Dd]2 [Dd] | [Dd][B,DB][B,DG] [A,DF][A,EG][A,DF] | %8
 [G,^CE]3 [F,D]2[K:treble] D | DF[FA] [Fc]2 [Fc] | BGe d2 d | ed^c dBG |[M:5/8] [FA]3 G2 |] %13
V:2
 z3 z2 [G,,G,]/[G,,G,]/ | [G,,G,][G,,G,][G,,G,] [G,,G,]2 [G,,G,] | %2
 [D,G,D][D,F,D][D,F,D] [D,F,D]2 [D,A,D] | [G,D][G,A,G][G,B,G][K:bass] [C,C]C,C, | %4
 [D,B,D]3 [D,A,D]2 [D,A,C]/[D,A,C]/ | [E,G,B,][E,G,B,][E,G,B,] [C,G,]2 [C,G,] | %6
 [D,F,D][D,F,D][D,F,D] [B,,G,]2 [D,A,] | [G,B,]G,G, D,D,D, | A,,3 D,2 D, | %9
 [D,F,][D,A,D][D,A,] [D,A,]2 [D,D] | [G,DG][G,B,][G,CG] [G,B,G]2 [G,B,G] | %11
 [G,CG][G,B,G][G,_B,G] [G,=B,G][G,DG][K:bass][G,B,] |[M:5/8] [D,C]3 [G,B,]2 |] %13

